images_elementary_svg/cmd/32/decrementindent.svg

<svg height="32" viewBox="0 0 32 32" width="32" xmlns="http://www.w3.org/2000/svg" xmlns:xlink="http://www.w3.org/1999/xlink"><linearGradient id="a" gradientTransform="matrix(-.4766877 0 0 .44382351 -6.090773 1.802682)" gradientUnits="userSpaceOnUse" x1="4.987055" x2="5.048453" y1="-3.92577" y2="14.902477"><stop offset="0" stop-color="#f0c1ff"/><stop offset=".26238" stop-color="#c5a3f2"/><stop offset=".704952" stop-color="#7a36b1"/><stop offset="1" stop-color="#4c2d81"/></linearGradient><linearGradient id="b" gradientTransform="matrix(0 -.44324004 .45870569 0 -19.384787 16.993361)" gradientUnits="userSpaceOnUse" x1="38.910011" x2="24.414497" y1="60.471832" y2="60.982784"><stop offset="0" stop-color="#fff"/><stop offset=".46985772" stop-color="#fff" stop-opacity=".235294"/><stop offset=".68658012" stop-color="#fff" stop-opacity=".156863"/><stop offset="1" stop-color="#fff" stop-opacity=".392157"/></linearGradient><radialGradient id="c" cx="24.837126" cy="36.421127" gradientTransform="matrix(-.35132358 0 0 -.1598281 15.904596 12.593033)" gradientUnits="userSpaceOnUse" r="15.644737"><stop offset="0"/><stop offset="1" stop-opacity="0"/></radialGradient><g transform="translate(0 16)"><g fill="#4d4d4d"><path d="m19-9h11v1h-11z" opacity=".4"/><path d="m19-12h3v1h-3z" opacity=".4"/><path d="m3.031296-9h11.709195v1h-11.709195z" opacity=".4"/><path d="m19 5h10v1h-10z" opacity=".4"/><path d="m19 8h5v1h-5z" opacity=".4"/><path d="m19 11h3v1h-3z" opacity=".4"/><path d="m3.031296 5h11.709195v1h-11.709195z" opacity=".4"/><path d="m3.031296 8h11.709195v1h-11.709195z" opacity=".4"/><path d="m19-5h11v2h-11z"/><path d="m19 0h9v2h-9z"/></g><g transform="matrix(-1.4192929 0 0 1.33333 19.621831 -5.500391)"><path d="m1.6832829 5.7683193c-.0019775-3.3348568 10.4955781-2.5973647 10.4975551.7374921-.001976 3.3330575-10.4995316 2.595566-10.4975551-.7374921z" fill="url(#c)" fill-rule="evenodd" opacity=".2"/><path d="m7.1244675 7.4877058 4.8949195-4.4683183-4.8958386-4.52809v3l-5.6235484.0087028.0009194 2.996408 5.6235484-.00871z" display="block" fill="url(#a)"/><g fill="none" stroke-miterlimit="7" stroke-width=".750002"><path d="m7.1247019 7.4877058 4.8947171-4.4683183-4.8956361-4.52815v3.00006l-5.6237828.00871.0004494 2.996408 5.6196395.00786z" display="block" opacity=".5" stroke="#6326b9" stroke-linejoin="round"/><path d="m7.8481719 5.8555474 2.9811721-2.8221866-2.9578208-2.90223537.00343 2.11986567-5.6327687.0004164-.012221 1.5125221 5.6327687-.0004164z" display="block" opacity=".401" stroke="url(#b)"/></g></g></g></svg>

<?xml version="1.0" encoding="UTF-8" standalone="no"?>
<svg
   xmlns:dc="http://purl.org/dc/elements/1.1/"
   xmlns:cc="http://creativecommons.org/ns#"
   xmlns:rdf="http://www.w3.org/1999/02/22-rdf-syntax-ns#"
   xmlns:svg="http://www.w3.org/2000/svg"
   xmlns="http://www.w3.org/2000/svg"
   xmlns:sodipodi="http://sodipodi.sourceforge.net/DTD/sodipodi-0.dtd"
   xmlns:inkscape="http://www.inkscape.org/namespaces/inkscape"
   height="32"
   viewBox="0 0 32 32"
   width="32"
   version="1.1"
   id="svg61"
   sodipodi:docname="decrementindent.svg"
   inkscape:version="0.92.3 (unknown)">
  <metadata
     id="metadata67">
    <rdf:RDF>
      <cc:Work
         rdf:about="">
        <dc:format>image/svg+xml</dc:format>
        <dc:type
           rdf:resource="http://purl.org/dc/dcmitype/StillImage" />
      </cc:Work>
    </rdf:RDF>
  </metadata>
  <defs
     id="defs65" />
  <sodipodi:namedview
     pagecolor="#ffffff"
     bordercolor="#666666"
     borderopacity="1"
     objecttolerance="10"
     gridtolerance="10"
     guidetolerance="10"
     inkscape:pageopacity="0"
     inkscape:pageshadow="2"
     inkscape:window-width="1366"
     inkscape:window-height="706"
     id="namedview63"
     showgrid="false"
     inkscape:zoom="10.429825"
     inkscape:cx="-5.0110622"
     inkscape:cy="10.917201"
     inkscape:window-x="0"
     inkscape:window-y="0"
     inkscape:window-maximized="1"
     inkscape:current-layer="svg61" />
  <linearGradient
     id="a"
     gradientTransform="matrix(-.4766877 0 0 .44382351 -6.090773 1.802682)"
     gradientUnits="userSpaceOnUse"
     x1="4.987055"
     x2="5.0484533"
     y1="-3.92577"
     y2="14.902477">
    <stop
       offset="0"
       stop-color="#f0c1ff"
       id="stop2" />
    <stop
       offset=".26238"
       stop-color="#c5a3f2"
       id="stop4" />
    <stop
       offset=".704952"
       stop-color="#7a36b1"
       id="stop6" />
    <stop
       offset="1"
       stop-color="#4c2d81"
       id="stop8" />
  </linearGradient>
  <linearGradient
     id="b"
     gradientTransform="matrix(0 -.44324004 .45870569 0 -19.384787 16.993361)"
     gradientUnits="userSpaceOnUse"
     x1="38.910011"
     x2="24.414497"
     y1="60.471832"
     y2="60.982784">
    <stop
       offset="0"
       stop-color="#fff"
       id="stop11" />
    <stop
       offset=".46985772"
       stop-color="#fff"
       stop-opacity=".235294"
       id="stop13" />
    <stop
       offset=".68658012"
       stop-color="#fff"
       stop-opacity=".156863"
       id="stop15" />
    <stop
       offset="1"
       stop-color="#fff"
       stop-opacity=".392157"
       id="stop17" />
  </linearGradient>
  <radialGradient
     id="c"
     cx="24.837126"
     cy="36.421127"
     gradientTransform="matrix(-.35132358 0 0 -.1598281 15.904596 12.593033)"
     gradientUnits="userSpaceOnUse"
     r="15.644737">
    <stop
       offset="0"
       id="stop20" />
    <stop
       offset="1"
       stop-opacity="0"
       id="stop22" />
  </radialGradient>
  <g
     transform="translate(0,16)"
     id="g59">
    <g
       id="g45"
       style="fill:#4d4d4d">
      <path
         d="m 19,-9 h 11 v 1 H 19 Z"
         id="path25"
         inkscape:connector-curvature="0"
         style="opacity:0.4" />
      <path
         d="m 19,-12 h 3 v 1 h -3 z"
         id="path27"
         inkscape:connector-curvature="0"
         style="opacity:0.4" />
      <path
         d="m 3.031296,-9 h 11.709195 v 1 H 3.031296 Z"
         id="path29"
         inkscape:connector-curvature="0"
         style="opacity:0.4" />
      <path
         d="M 19,5 H 29 V 6 H 19 Z"
         id="path31"
         inkscape:connector-curvature="0"
         style="opacity:0.4" />
      <path
         d="m 19,8 h 5 v 1 h -5 z"
         id="path33"
         inkscape:connector-curvature="0"
         style="opacity:0.4" />
      <path
         d="m 19,11 h 3 v 1 h -3 z"
         id="path35"
         inkscape:connector-curvature="0"
         style="opacity:0.4" />
      <path
         d="M 3.031296,5 H 14.740491 V 6 H 3.031296 Z"
         id="path37"
         inkscape:connector-curvature="0"
         style="opacity:0.4" />
      <path
         d="M 3.031296,8 H 14.740491 V 9 H 3.031296 Z"
         id="path39"
         inkscape:connector-curvature="0"
         style="opacity:0.4" />
      <path
         d="m 19,-5 h 11 v 2 H 19 Z"
         id="path41"
         inkscape:connector-curvature="0" />
      <path
         d="m 19,0 h 9 v 2 h -9 z"
         id="path43"
         inkscape:connector-curvature="0" />
    </g>
    <g
       transform="matrix(-1.4192929,0,0,1.33333,19.621831,-5.500391)"
       id="g57">
      <path
         d="M 1.6832829,5.7683193 C 1.6813054,2.4334625 12.178861,3.1709546 12.180838,6.5058114 12.178862,9.8388689 1.6813064,9.1013774 1.6832829,5.7683193 Z"
         id="path47"
         inkscape:connector-curvature="0"
         style="opacity:0.2;fill:url(#c);fill-rule:evenodd" />
      <path
         d="m 7.1244675,7.4877058 4.8949195,-4.4683183 -4.8958386,-4.52809 v 3 L 1.5,1.5000003 l 9.194e-4,2.996408 5.6235484,-0.00871 z"
         display="block"
         id="path49"
         inkscape:connector-curvature="0"
         style="display:block;fill:url(#a)" />
      <g
         stroke-miterlimit="7"
         id="g55"
         style="fill:none;stroke-width:0.75000203;stroke-miterlimit:7">
        <path
           d="m 7.1247019,7.4877058 4.8947171,-4.4683183 -4.8956361,-4.52815 v 3.00006 l -5.6237828,0.00871 4.494e-4,2.996408 5.6196395,0.00786 z"
           display="block"
           id="path51"
           inkscape:connector-curvature="0"
           style="display:block;opacity:0.5;stroke:#6326b9;stroke-linejoin:round" />
        <path
           d="M 7.8481719,5.8555474 10.829344,3.0333608 7.8715232,0.13112543 7.8749532,2.2509911 2.2421845,2.2514075 2.2299635,3.7639296 7.8627322,3.7635132 Z"
           display="block"
           id="path53"
           inkscape:connector-curvature="0"
           style="display:block;opacity:0.40100002;stroke:url(#b)" />
      </g>
    </g>
  </g>
</svg>
